X:22
T:Liberty
M:2/2
L:1/8
K:D
"D"f2 A2 f2 A2|fgfe d2 ef|"G"g2 B2 g2 B2|gagf efge|
"D"f2 A2 f2 A2|fgfe  d2 ef|"G"gfed "A"cABc|1"D"dBAF D2 e2:|2"D"dBAF D2 F
G|
|:"D"A2 AB AGFE|DFAd f2 d2|A2 AB AFED|"A"A8|
"D"A2 AB AGFE|DFAd fdef|"G"gfed "A"cABc|1"D"dBAF D2 FG:|2"D"dBAF D2||
